X: 3389
T: SWISS AIR
%R: reel
B: James Kerr "Merry Melodies" v.3 p.43 #389
Z: 2016 John Chambers <jc:trillian.mit.edu>
M: 2/4
L: 1/16
K: D
(FG) |\
A2FG A2FG | A2fe d2AA | A2gf e2fe | (d4 A2) (FG) |\
A2FG A2FG | A2fe d2AA | A2gf e2fe | d6 :|
|: A2 |\
A2ed c2AA | A2fe d2AA | A2ed c2AA | A2fe d2FG |\
A2FG A2FG | A2fe d2AA | A2gf | e2fe | d6 :|

%%sep 1 1 500
%%sep 1 1 500

